X: 694
T: Against The Grain
R: jig
M: 6/8
K: Gmajor
|:GGG AGe|deg ~B3|dGG edB|~A3 ABA|
~G3 edB|deg ~B3|deg BAG|1 ~A3 dBA:|2 ~A3 def||
|:~g3 BAG|DEG FGA|G2e dBG|A2A AB1/2c1/2d|
~g3 bag|edB AGF|G2e dBG|1 ~A3 AB1/2c1/2d:|2 ~A3 GFD||

